Dominus_Dark_Funeral/22/apps/appcode.svg

<svg xmlns="http://www.w3.org/2000/svg" width="24" height="24" version="1"><defs><linearGradient id="a"><stop offset="0" stop-color="#040000"/><stop offset="1" stop-opacity="0"/></linearGradient></defs><path d="M1 1v22h22V1H1zm14.62 3l2.69 2.72-1.4 1.41-2.02-2.01v6.85l.47.46 1.53-1.5 1.36 1.33L15.47 16l-2.43-2.45V6.57L15.62 4zM9.24 4l2.56 2.56v6.98l.73.76-1.69 1.7-1.66-1.7.75-.76v-1.52h-1.6v1.52l.72.76-1.68 1.7-1.68-1.7.76-.76V6.77l2.79-2.76zm-.92 2.05v4.02h1.6v-2.4l-1.6-1.62zm-1.21 11.4h9.78v1.9H7.11v-1.9z" fill="#e6e6e6"/></svg>

<?xml version="1.0" encoding="UTF-8" standalone="no"?>
<svg
   xmlns:dc="http://purl.org/dc/elements/1.1/"
   xmlns:cc="http://creativecommons.org/ns#"
   xmlns:rdf="http://www.w3.org/1999/02/22-rdf-syntax-ns#"
   xmlns:svg="http://www.w3.org/2000/svg"
   xmlns="http://www.w3.org/2000/svg"
   xmlns:sodipodi="http://sodipodi.sourceforge.net/DTD/sodipodi-0.dtd"
   xmlns:inkscape="http://www.inkscape.org/namespaces/inkscape"
   width="24"
   height="24"
   version="1"
   id="svg11"
   sodipodi:docname="appcode.svg"
   inkscape:version="0.92.4 (5da689c313, 2019-01-14)">
  <metadata
     id="metadata15">
    <rdf:RDF>
      <cc:Work
         rdf:about="">
        <dc:format>image/svg+xml</dc:format>
        <dc:type
           rdf:resource="http://purl.org/dc/dcmitype/StillImage" />
        <dc:title></dc:title>
      </cc:Work>
    </rdf:RDF>
  </metadata>
  <sodipodi:namedview
     pagecolor="#ffffff"
     bordercolor="#666666"
     borderopacity="1"
     objecttolerance="10"
     gridtolerance="10"
     guidetolerance="10"
     inkscape:pageopacity="0"
     inkscape:pageshadow="2"
     inkscape:window-width="1142"
     inkscape:window-height="480"
     id="namedview13"
     showgrid="false"
     inkscape:zoom="9.8333333"
     inkscape:cx="1.2711864"
     inkscape:cy="12"
     inkscape:window-x="0"
     inkscape:window-y="25"
     inkscape:window-maximized="0"
     inkscape:current-layer="svg11" />
  <defs
     id="defs7">
    <linearGradient
       id="a">
      <stop
         offset="0"
         stop-color="#040000"
         id="stop2" />
      <stop
         offset="1"
         stop-opacity="0"
         id="stop4" />
    </linearGradient>
  </defs>
  <path
     d="M 1,1 V 23 H 23 V 1 Z m 14.62,3 2.69,2.72 -1.4,1.41 -2.02,-2.01 v 6.85 l 0.47,0.46 1.53,-1.5 1.36,1.33 L 15.47,16 13.04,13.55 V 6.57 Z M 9.24,4 11.8,6.56 v 6.98 L 12.53,14.3 10.84,16 9.18,14.3 9.93,13.54 v -1.52 h -1.6 v 1.52 L 9.05,14.3 7.37,16 5.69,14.3 6.45,13.54 V 6.77 L 9.24,4.01 Z M 8.32,6.05 v 4.02 h 1.6 v -2.4 z m -1.21,11.4 h 9.78 v 1.9 H 7.11 Z"
     id="path9"
     inkscape:connector-curvature="0"
     style="fill:#e6e6e6" />
</svg>
